X:1030
T:Starry Nights of Shetland, The
C:Joe Buchanan's Scottish Tome - Page 619.1
I:619 1
Z:Carl Allison
R:Waltz
L:1/4
M:3/4
K:D
A | "D"f2 d | "D7"A B A | "G"G2 G | "Em"c2 B | "A7"A2 c | "A7"e2A | "D"f3- | "D"f2 A |
"D"f2 d | "D7"A B A | "G"G2 G | "Em"c2 B | "A7"A>(c e/f/) | "A7"g B c | "D"d3- | "D"d e f |
"G"g B>g | "G"g B>g | "D"f A f | "D"f A f | "D"f d f | "B7"(a g f) | "E7"e3- | "A7"e2 A |
"D"f2 d | "D"A B>A | "G"G2 G | "Em"c2 B | "A7"A>c e/f/ | "A7"g B>c | "D"d3- | d2 :|

